X:4587415
%%MIDI ratio 2 1
T:Valse Louise
T:Valse Aldor
C:Aldor Morin or Fortunat Malouin (maybe)
S:Normand Miron, recorded at a QuÃ©becois Social Dance session at Northern
S:Week at Ashokan, 1998. Chords are transcribed as accurately as possible.
H:Normand is a well known QuÃ©bÃ©cois button accordion player. Jean Marie 
H:Verret was also playing which may have affected Normand's melody at times. 
H:Normand is very expressive, but much of it isn't easily written down; it 
H:involves subtle use of the bellows and subtle timing that isn't easy to 
H:notate. I included a few idiosyncratic melodic and timing details that 
H:he didn't play every time to give more of a sense of his playing style.
N:From NH Country Dance (URL below), along with many New England, Canadian & Swedish
N:tunes, and resources for abc notation and New England traditional music and dance.
%
N: Note #1: To preserve formatting (font, spacing, etc.), use the
N: file header at the URL below; just follow accompanying instructions.
%
N: Note #2: This abc code is optimized for use with abcm2ps, which is used by
N: EasyABC and other abc apps. To abc2svg for display or printing look to see if there
N: is a file optimized for abc2svg. If not you may need to adjust the spacing in places.
%
Z:abc-transcription Peter Yarensky. I rely heavily on careful listening to the
Z:named sources aided by software to hear details. While not perfect, known
Z:substantial differences from other written sources receive careful attention.
Z:abc-copyright Peter Yarensky. You may reproduce this tune freely but
Z:please include the entire abc file including all the notes.
%%writefields HQSD
U:s = !slide!
U:t = !trill!
F:Tunes Home Page - https://fiddle-tunes.nhcountrydance.com/
F:abc Header & its Usage - https://fiddle-tunes.nhcountrydance.com/header-page/
M:3/4
L:1/8
R:Waltz
G:Couples Dances ~ Waltzes ~ Canadian
N: Tune Tags ~ Waltz, Canadian, Aldor Morin
K:C
%%textfont Palatino-Italic 14
%%text As Played by Normand Miron.
%%text Dotted pairs get a 2:1 ratio (e.g. 1/4 & 1/8 notes)
%%textfont Palatino-Roman 16
%%
"C" e2>e2 ef     | "C" e2>e2 ef    | "C" ee-e2 c2     | "C" G2>A2 Bc |\
"Dm" d4 de       | "Dm" d4 e2      | "Dm" d4 c2       | "G7" G2 AB cd |
"C" e4-ef        | "C" e4 e<f      | "C" e4 c2        | "C" G3z z2 |\
"G" zG AB cd     | "C" e4 d2-      | "G7" !>!dG GG BA | "G7" G2 F2 D2 ||
"C" e2>d2 ef     | "C" e4 f2       | "C" e2 e2 c2     | "C" G2>A2 Bc |\
"Dm" d2 z2 zd-   | "Dm" !>!d4 e2   | "Dm" d4 c2       | "G7" G2 z2 E2 |
"C" G2 E2 zG     | "C7" c2 B2  _B2 | "F" A2 F2 A2     | "D7" d4 c2 |\
"G7" B2 D2-DE    | "G7" F3 G A>B   | "C" c4 c2        | "C" c4- cd ||
[K:F] |:
"F" cA FC FA     | "Dm" cA FC FA   | "Gm" c2 B2- BA   | "Gm" B2 z2 Bc |\
"C7" BG EC EG    | "C7" BG EC EG   | "C7" B2 A^G- G2  | "F" A4 (3FAc |
"F" fc AF Ac     | "F7" fc AF Ac   | "Bb" e2 d2- d^c  |"Bb"  d4 f2 |
"C7" e2 (3ded c2 | "C7" B2 A2 G2   |[1"^Usual Ending" "F" F2 F>E F>G |\
"F" F2 z2 c>d   :|[2"^Final Ending" "F" F2 FA c2        | "F" f6 |]

